X:1
T:Meinem Jesum Lass Ich Nicht, 78.78.77
T:Meinem Jesum Lass Ich Nicht, 78.78.77
T:Neuverfertiges Gesanbguch (Darmstad
T:Public Domain Courtesy of the Cyber Hymnal™
C:Neuverfertiges Gesanbguch (Darmstad
Z:Public Domain
Z:Courtesy of the Cyber Hymnal™
%%score 1 ( 2 3 )
L:1/8
Q:1/4=115
M:none
K:G
V:1 treble 
V:2 bass 
V:3 bass 
V:1
 [DG]2 [^CG]2 [DF]2 [DG]2 [=CE]2 [CF]2 [DG]4 | [DB]2 [DB]2 [DA]2 [Dd]2 [Ec]2 [DB]2 [DA]4 [DG]4 | %2
 [DG]2 [^CG]2 [DF]2 [DG]2 [=CE]2 [CF]2 [DG]4 | [DB]2 [DB]2 [DA]2 [Dd]2 [Ec]2 [DB]2 [DA]4 [DG]4 | %4
 [GB]2 [FA]2 [EG]2 [DA]2 [DB]2 [DB]2 [DA]4 | [DB]2 [Gd]2 [Gc]2 [GB]2 [GA]2 [FA]2 [DG]4 |] %6
V:2
 [G,B,]2 [E,G,]2 [D,A,]2 [B,,B,]2 [C,G,]2 [A,,A,]2 [G,,B,]4 | %1
 [G,,G,]2 G,2 [F,A,]2 [B,,G,]2 [C,G,]2 [G,,G,]2 (G,2 F,2) [G,,B,]4 | %2
 [G,B,]2 [E,G,]2 [D,A,]2 [B,,B,]2 [C,G,]2 [A,,A,]2 [G,,B,]4 | %3
 [G,,G,]2 G,2 [F,A,]2 [B,,G,]2 [C,G,]2 [G,,G,]2 (G,2 F,2) [G,,B,]4 | %4
 [G,D]2 [D,D]2 [E,B,]2 [F,A,]2 G,2 [B,,G,]2 [D,F,]4 | %5
 G,2 [B,,D]2 [C,E]2 [G,,D]2 [C,E]2 [D,D]2 [G,,B,]4 |] %6
V:3
 x16 | x2 G,2 x6 D,4 x6 | x16 | x2 G,2 x6 D,4 x6 | x8 G,2 x6 | G,2 x14 |] %6

